rx/img/logo-white.svg

<svg width="164" height="39" viewBox="0 0 164 39" fill="none" xmlns="http://www.w3.org/2000/svg">
<g clip-path="url(#clip0_767_2098)">
<path d="M45.3076 16.2612L41.8164 22.3289H65.9497V16.2612H45.3076Z" fill="url(#paint0_linear_767_2098)"/>
<path d="M53.9492 30.6275H60.212L60.2653 0.206299L53.9492 7.26598V30.6275Z" fill="url(#paint1_linear_767_2098)"/>
<path d="M53.2016 0.206299L37.8984 16.674L41.9078 22.33L60.2669 0.206299H53.2016Z" fill="url(#paint2_linear_767_2098)"/>
<path d="M57.7001 34.5583L63.3381 28.2716C63.7912 27.7652 63.4329 26.9597 62.7518 26.9597H51.4758C50.7947 26.9597 50.4364 27.7652 50.8895 28.2716L56.5275 34.5583C56.8414 34.9078 57.3862 34.9078 57.7001 34.5583Z" fill="url(#paint3_linear_767_2098)"/>
<path d="M72.1718 29.8957H70.0694L69.6341 30.8848H69.0508L70.8423 26.9255H71.4019L73.1993 30.8848H72.6042L72.1718 29.8957ZM71.9734 29.4456L71.1206 27.5059L70.2678 29.4456H71.9734Z" fill="white"/>
<path d="M76.5086 26.6927V30.8888H75.9874V30.415C75.7446 30.7555 75.3597 30.9243 74.9184 30.9243C74.0419 30.9243 73.4023 30.3084 73.4023 29.3904C73.4023 28.4753 74.0419 27.8624 74.9184 27.8624C75.3419 27.8624 75.715 28.0193 75.9637 28.3421V26.6897H76.5086V26.6927ZM75.9697 29.3904C75.9697 28.7507 75.5344 28.3391 74.9629 28.3391C74.3854 28.3391 73.9502 28.7507 73.9502 29.3904C73.9502 30.03 74.3854 30.4476 74.9629 30.4476C75.5344 30.4476 75.9697 30.0271 75.9697 29.3904Z" fill="white"/>
<path d="M80.1929 27.8938L78.8811 30.8906H78.3274L77.0156 27.8938H77.5812L78.6117 30.2984L79.6629 27.8938H80.1929Z" fill="white"/>
<path d="M82.9769 29.0789V30.8882H82.4617V30.4914C82.281 30.7639 81.9464 30.9208 81.4786 30.9208C80.8005 30.9208 80.3711 30.5595 80.3711 30.0384C80.3711 29.5586 80.682 29.1618 81.5763 29.1618H82.435V29.0552C82.435 28.5962 82.1685 28.3327 81.6325 28.3327C81.2772 28.3327 80.913 28.457 80.682 28.6554L80.457 28.2468C80.7679 27.998 81.215 27.8618 81.6947 27.8618C82.515 27.8618 82.9769 28.2586 82.9769 29.0789ZM82.435 29.9702V29.5527H81.597C81.061 29.5527 80.9071 29.763 80.9071 30.0176C80.9071 30.3167 81.1558 30.5033 81.5674 30.5033C81.976 30.5033 82.2988 30.3167 82.435 29.9702Z" fill="white"/>
<path d="M86.831 29.1613V30.8848H86.2891V29.2235C86.2891 28.6342 85.9959 28.347 85.4807 28.347C84.9033 28.347 84.5302 28.6905 84.5302 29.3419V30.8848H83.9883V27.8909H84.5094V28.344C84.7286 28.039 85.1135 27.8643 85.5903 27.8643C86.3157 27.8613 86.831 28.2789 86.831 29.1613Z" fill="white"/>
<path d="M87.5742 29.3898C87.5742 28.4955 88.2346 27.8618 89.1584 27.8618C89.6944 27.8618 90.1415 28.0839 90.3814 28.5015L89.9698 28.768C89.7773 28.4748 89.4842 28.3386 89.1555 28.3386C88.5662 28.3386 88.125 28.7502 88.125 29.3898C88.125 30.0413 88.5662 30.447 89.1555 30.447C89.4842 30.447 89.7773 30.3108 89.9698 30.0176L90.3814 30.2782C90.1445 30.6958 89.6974 30.9238 89.1584 30.9238C88.2375 30.9208 87.5742 30.2812 87.5742 29.3898Z" fill="white"/>
<path d="M93.7347 29.5712H91.3036C91.3717 30.0983 91.7952 30.4478 92.3903 30.4478C92.7398 30.4478 93.0359 30.3293 93.255 30.0865L93.5541 30.4359C93.2817 30.7528 92.8701 30.9216 92.3726 30.9216C91.4043 30.9216 90.7617 30.2819 90.7617 29.3876C90.7617 28.4993 91.4013 27.8596 92.266 27.8596C93.1306 27.8596 93.7465 28.4815 93.7465 29.4024C93.7465 29.4528 93.7406 29.5209 93.7347 29.5712ZM91.3036 29.1803H93.2254C93.1691 28.6769 92.7901 28.3216 92.263 28.3216C91.7448 28.3216 91.3599 28.671 91.3036 29.1803Z" fill="white"/>
<path d="M98.6717 27.8922L97.2178 31.1881C96.9513 31.8218 96.6078 32.0202 96.1488 32.0202C95.8616 32.0202 95.5655 31.9254 95.3789 31.7418L95.6099 31.3332C95.7579 31.4753 95.9445 31.5523 96.1458 31.5523C96.4064 31.5523 96.5693 31.4338 96.7173 31.0874L96.8121 30.8771L95.4885 27.8862H96.054L97.0993 30.2849L98.1357 27.8862H98.6717V27.8922Z" fill="white"/>
<path d="M98.8203 29.3898C98.8203 28.4955 99.4807 27.8618 100.381 27.8618C101.281 27.8618 101.935 28.4955 101.935 29.3898C101.935 30.2841 101.278 30.9238 100.381 30.9238C99.4807 30.9208 98.8203 30.2812 98.8203 29.3898ZM101.388 29.3898C101.388 28.7502 100.958 28.3386 100.381 28.3386C99.8034 28.3386 99.3681 28.7502 99.3681 29.3898C99.3681 30.0295 99.8034 30.447 100.381 30.447C100.958 30.447 101.388 30.0265 101.388 29.3898Z" fill="white"/>
<path d="M105.482 27.8919V30.8887H104.967V30.4356C104.748 30.7465 104.372 30.9213 103.948 30.9213C103.172 30.9213 102.66 30.4978 102.66 29.6153V27.8889H103.202V29.5532C103.202 30.1424 103.495 30.4356 104.01 30.4356C104.576 30.4356 104.937 30.0862 104.937 29.4406V27.8919H105.482Z" fill="white"/>
<path d="M108.126 27.8618V28.3889C108.082 28.383 108.041 28.383 108.002 28.383C107.419 28.383 107.058 28.7384 107.058 29.3958V30.8882H106.516V27.8914H107.037V28.3948C107.229 28.0425 107.602 27.8618 108.126 27.8618Z" fill="white"/>
<path d="M72.6775 36.3705C72.6775 37.2915 72.0379 37.9045 71.1614 37.9045C70.7379 37.9045 70.3648 37.7416 70.1161 37.4188V38.9676H69.5742V34.8721H70.0954V35.3459C70.3382 35.0113 70.7231 34.8425 71.1644 34.8425C72.0379 34.8425 72.6775 35.4526 72.6775 36.3705ZM72.1267 36.3705C72.1267 35.7368 71.6914 35.3193 71.114 35.3193C70.5425 35.3193 70.1072 35.7368 70.1072 36.3705C70.1072 37.0102 70.5425 37.4277 71.114 37.4277C71.6914 37.4277 72.1267 37.0072 72.1267 36.3705Z" fill="white"/>
<path d="M76.2685 36.1406V37.8641H75.7266V36.2028C75.7266 35.6135 75.4334 35.3263 74.9182 35.3263C74.3408 35.3263 73.9677 35.6728 73.9677 36.3213V37.8641H73.4258V33.668H73.9677V35.2907C74.1927 35.0035 74.5658 34.8377 75.0248 34.8377C75.7562 34.8406 76.2685 35.2582 76.2685 36.1406Z" fill="white"/>
<path d="M79.6488 36.0596V37.869H79.1335V37.4721C78.9529 37.7446 78.6183 37.9015 78.1504 37.9015C77.4723 37.9015 77.043 37.5403 77.043 37.0191C77.043 36.5393 77.3539 36.1425 78.2482 36.1425H79.1069V36.0359C79.1069 35.5769 78.8404 35.3134 78.3044 35.3134C77.9491 35.3134 77.5849 35.4377 77.3539 35.6361L77.1288 35.2275C77.4398 34.9787 77.8869 34.8425 78.3666 34.8425C79.1868 34.8425 79.6488 35.2393 79.6488 36.0596ZM79.1069 36.951V36.5334H78.2689C77.7329 36.5334 77.5789 36.7437 77.5789 36.9983C77.5789 37.2974 77.8277 37.484 78.2393 37.484C78.6479 37.484 78.9707 37.2974 79.1069 36.951Z" fill="white"/>
<path d="M82.271 34.8425V35.3696C82.2266 35.3637 82.1851 35.3637 82.1466 35.3637C81.5633 35.3637 81.202 35.7191 81.202 36.3765V37.869H80.6602V34.8721H81.1813V35.3756C81.3708 35.0232 81.7439 34.8425 82.271 34.8425Z" fill="white"/>
<path d="M87.9152 36.1425V37.866H87.3733V36.2047C87.3733 35.6154 87.092 35.3282 86.5975 35.3282C86.0556 35.3282 85.6973 35.6746 85.6973 36.3232V37.866H85.1554V36.2047C85.1554 35.6154 84.8711 35.3282 84.3796 35.3282C83.8377 35.3282 83.4794 35.6746 83.4794 36.3232V37.866H82.9375V34.8692H83.4587V35.3163C83.6748 35.0113 84.042 34.8425 84.4921 34.8425C84.9511 34.8425 85.336 35.0232 85.5315 35.3963C85.7565 35.0557 86.177 34.8425 86.6863 34.8425C87.4177 34.8425 87.9152 35.2601 87.9152 36.1425Z" fill="white"/>
<path d="M91.2933 36.0596V37.869H90.7781V37.4721C90.5974 37.7446 90.2628 37.9015 89.795 37.9015C89.1169 37.9015 88.6875 37.5403 88.6875 37.0191C88.6875 36.5393 88.9984 36.1425 89.8927 36.1425H90.7514V36.0359C90.7514 35.5769 90.4849 35.3134 89.9489 35.3134C89.5936 35.3134 89.2294 35.4377 88.9984 35.6361L88.7734 35.2275C89.0843 34.9787 89.5314 34.8425 90.0111 34.8425C90.8284 34.8425 91.2933 35.2393 91.2933 36.0596ZM90.7514 36.951V36.5334H89.9134C89.3775 36.5334 89.2235 36.7437 89.2235 36.9983C89.2235 37.2974 89.4722 37.484 89.8838 37.484C90.2924 37.484 90.6152 37.2974 90.7514 36.951Z" fill="white"/>
<path d="M92.0391 36.3705C92.0391 35.4762 92.6994 34.8425 93.6233 34.8425C94.1592 34.8425 94.6064 35.0617 94.8462 35.4822L94.4346 35.7487C94.2422 35.4555 93.949 35.3193 93.6203 35.3193C93.031 35.3193 92.5898 35.7309 92.5898 36.3705C92.5898 37.022 93.031 37.4277 93.6203 37.4277C93.949 37.4277 94.2422 37.2915 94.4346 36.9983L94.8462 37.2589C94.6093 37.6765 94.1622 37.9045 93.6233 37.9045C92.6994 37.9015 92.0391 37.2619 92.0391 36.3705Z" fill="white"/>
<path d="M98.1561 34.8707L96.7021 38.1666C96.4356 38.8003 96.0922 38.9987 95.6332 38.9987C95.3459 38.9987 95.0498 38.9039 94.8633 38.7203L95.0943 38.3117C95.2423 38.4538 95.4289 38.5308 95.6302 38.5308C95.8908 38.5308 96.0537 38.4124 96.2017 38.0659L96.2965 37.8556L94.9728 34.8647H95.5384L96.5837 37.2634L97.6201 34.8647H98.1561V34.8707Z" fill="white"/>
<path d="M104.723 34.8721L103.604 37.8689H103.083L102.218 35.5946L101.342 37.8689H100.82L99.707 34.8721H100.222L101.093 37.2589L101.999 34.8721H102.458L103.346 37.2707L104.241 34.8721H104.723Z" fill="white"/>
<path d="M105.172 33.9423C105.172 33.7439 105.329 33.5869 105.539 33.5869C105.749 33.5869 105.906 33.7409 105.906 33.9334C105.906 34.1377 105.752 34.2947 105.539 34.2947C105.332 34.2947 105.172 34.1407 105.172 33.9423ZM105.27 34.8721H105.811V37.8689H105.27V34.8721Z" fill="white"/>
<path d="M108.535 37.6931C108.372 37.8353 108.124 37.9034 107.878 37.9034C107.274 37.9034 106.927 37.5687 106.927 36.9646V35.3182H106.418V34.871H106.927V34.2136H107.469V34.871H108.328V35.3182H107.469V36.941C107.469 37.2637 107.638 37.4444 107.94 37.4444C108.097 37.4444 108.251 37.394 108.363 37.3022L108.535 37.6931Z" fill="white"/>
<path d="M112.038 36.1406V37.8641H111.496V36.2028C111.496 35.6135 111.203 35.3263 110.688 35.3263C110.11 35.3263 109.737 35.6728 109.737 36.3213V37.8641H109.195V33.668H109.737V35.2907C109.962 35.0035 110.335 34.8377 110.794 34.8377C111.523 34.8406 112.038 35.2582 112.038 36.1406Z" fill="white"/>
<path d="M117.357 34.8699V37.8667H116.842V37.4136C116.623 37.7246 116.247 37.8993 115.823 37.8993C115.047 37.8993 114.535 37.4758 114.535 36.5934V34.8669H115.077V36.5282C115.077 37.1175 115.37 37.4107 115.885 37.4107C116.451 37.4107 116.812 37.0612 116.812 36.4157V34.8669H117.357V34.8699Z" fill="white"/>
<path d="M118.016 37.5502L118.241 37.1208C118.495 37.3014 118.901 37.4317 119.292 37.4317C119.795 37.4317 120.006 37.2777 120.006 37.0231C120.006 36.3509 118.11 36.9313 118.11 35.7379C118.11 35.2019 118.59 34.8376 119.36 34.8376C119.751 34.8376 120.192 34.9383 120.453 35.1101L120.222 35.5395C119.949 35.3648 119.65 35.3026 119.357 35.3026C118.883 35.3026 118.649 35.4773 118.649 35.7142C118.649 36.4219 120.55 35.8445 120.55 37.0083C120.55 37.5502 120.053 37.8966 119.256 37.8966C118.756 37.8996 118.264 37.7486 118.016 37.5502Z" fill="white"/>
<path d="M14.1957 22.2836L9.8991 16.0768H9.64444H5.15831V22.2836H0V0H9.64444C15.5963 0 19.3215 3.08861 19.3215 8.08428C19.3215 11.4276 17.6366 13.8765 14.7376 15.1203L19.736 22.2836H14.1957ZM9.36018 4.20205H5.15831V11.9695H9.36018C12.5108 11.9695 14.1039 10.5066 14.1039 8.08724C14.101 5.63531 12.5108 4.20205 9.36018 4.20205Z" fill="white"/>
<path d="M33.9277 22.285L30.173 17.0317L26.288 22.285H20.875L27.4635 13.6588L21.0971 5.15991H26.667L30.2974 10.1585L34.0195 5.15991H39.3052L32.9387 13.5314L39.5598 22.285H33.9277Z" fill="white"/>
<path d="M82.3715 22.2836L78.0749 16.0768H77.8202H73.3311V22.2836H68.1758V0H77.8202C83.7721 0 87.4972 3.08861 87.4972 8.08428C87.4972 11.4276 85.8094 13.8765 82.9134 15.1203L87.9118 22.2836H82.3715ZM77.533 4.20205H73.3311V11.9695H77.533C80.6837 11.9695 82.2767 10.5066 82.2767 8.08724C82.2767 5.63531 80.6837 4.20205 77.533 4.20205Z" fill="white"/>
<path d="M89.9453 13.7183C89.9453 8.5598 93.9221 4.89966 99.3677 4.89966C104.813 4.89966 108.757 8.5598 108.757 13.7183C108.757 18.8769 104.81 22.537 99.3677 22.537C93.9251 22.537 89.9453 18.8769 89.9453 13.7183ZM103.729 13.7183C103.729 10.7571 101.852 8.97437 99.3677 8.97437C96.8833 8.97437 94.9733 10.7571 94.9733 13.7183C94.9733 16.6796 96.8833 18.4623 99.3677 18.4623C101.852 18.4623 103.729 16.6796 103.729 13.7183Z" fill="white"/>
<path d="M129.311 5.15747V22.2825H124.6V20.2452C123.294 21.7406 121.384 22.5372 119.285 22.5372C114.988 22.5372 111.965 20.1178 111.965 14.832V5.15747H116.931V14.1035C116.931 16.967 118.204 18.2433 120.401 18.2433C122.693 18.2433 124.348 16.7775 124.348 13.6267V5.15747H129.311Z" fill="white"/>
<path d="M144.969 21.4579C143.95 22.1894 142.455 22.5418 140.927 22.5418C136.882 22.5418 134.528 20.4718 134.528 16.3971V9.36114H131.887V5.53813H134.528V1.36865H139.494V5.53813H143.761V9.35817H139.494V16.329C139.494 17.7919 140.29 18.5885 141.626 18.5885C142.357 18.5885 143.092 18.3664 143.634 17.9518L144.969 21.4579Z" fill="white"/>
<path d="M163.907 15.122H150.952C151.428 17.2541 153.243 18.56 155.852 18.56C157.667 18.56 158.973 18.0181 160.152 16.9047L162.793 19.7682C161.203 21.5835 158.813 22.537 155.725 22.537C149.806 22.537 145.953 18.8117 145.953 13.7183C145.953 8.59237 149.868 4.89966 155.088 4.89966C160.116 4.89966 164.001 8.27551 164.001 13.7805C164.001 14.1685 163.939 14.7074 163.907 15.122ZM150.886 12.2259H159.323C158.973 10.0612 157.351 8.66048 155.121 8.66048C152.861 8.66048 151.236 10.0286 150.886 12.2259Z" fill="white"/>
</g>
<defs>
<linearGradient id="paint0_linear_767_2098" x1="66.1041" y1="21.4512" x2="42.698" y2="17.3242" gradientUnits="userSpaceOnUse">
<stop stop-color="#77E2D4"/>
<stop offset="0.1767" stop-color="#77E2D4"/>
<stop offset="0.2057" stop-color="#77E2D4"/>
<stop offset="0.2393" stop-color="#66D4C9"/>
<stop offset="0.3054" stop-color="#3AAFAD"/>
<stop offset="0.3568" stop-color="#138F95"/>
<stop offset="0.6276" stop-color="#77E2D4"/>
<stop offset="0.7287" stop-color="#75E2D3"/>
<stop offset="0.7651" stop-color="#6EE1D0"/>
<stop offset="0.791" stop-color="#63DFCA"/>
<stop offset="0.812" stop-color="#52DDC1"/>
<stop offset="0.83" stop-color="#3CDAB7"/>
<stop offset="0.8456" stop-color="#21D6A9"/>
<stop offset="0.8597" stop-color="#02D29A"/>
<stop offset="0.8603" stop-color="#00D299"/>
<stop offset="1" stop-color="#138F95"/>
</linearGradient>
<linearGradient id="paint1_linear_767_2098" x1="62.3594" y1="29.8445" x2="52.5884" y2="3.00004" gradientUnits="userSpaceOnUse">
<stop stop-color="#138F95"/>
<stop offset="0.1406" stop-color="#77E2D4"/>
<stop offset="0.4532" stop-color="#75E2D3"/>
<stop offset="0.5658" stop-color="#6EE1D0"/>
<stop offset="0.646" stop-color="#63DFCA"/>
<stop offset="0.7109" stop-color="#52DDC1"/>
<stop offset="0.7665" stop-color="#3CDAB7"/>
<stop offset="0.8148" stop-color="#21D6A9"/>
<stop offset="0.8583" stop-color="#02D29A"/>
<stop offset="0.8603" stop-color="#00D299"/>
<stop offset="1" stop-color="#138F95"/>
</linearGradient>
<linearGradient id="paint2_linear_767_2098" x1="37.8986" y1="11.2682" x2="60.2675" y2="11.2682" gradientUnits="userSpaceOnUse">
<stop stop-color="#77E2D4"/>
<stop offset="0.1038" stop-color="#7EE4D7"/>
<stop offset="0.259" stop-color="#93EBDE"/>
<stop offset="0.4454" stop-color="#B4F6EA"/>
<stop offset="0.5" stop-color="#BFFAEE"/>
<stop offset="1" stop-color="#77E2D4"/>
</linearGradient>
<linearGradient id="paint3_linear_767_2098" x1="63.5393" y1="30.8893" x2="50.687" y2="30.8893" gradientUnits="userSpaceOnUse">
<stop stop-color="#77E2D4"/>
<stop offset="0.1038" stop-color="#7EE4D7"/>
<stop offset="0.259" stop-color="#93EBDE"/>
<stop offset="0.4454" stop-color="#B4F6EA"/>
<stop offset="0.5" stop-color="#BFFAEE"/>
<stop offset="1" stop-color="#77E2D4"/>
</linearGradient>
<clipPath id="clip0_767_2098">
<rect width="164" height="39" fill="white"/>
</clipPath>
</defs>
</svg>

<svg width="164" height="39" fill="none" xmlns="http://www.w3.org/2000/svg"><g clip-path="url(#a)"><path d="m45.308 16.261-3.492 6.068H65.95V16.26H45.308Z" fill="url(#b)"/><path d="M53.95 30.628h6.262L60.265.206l-6.316 7.06v23.362Z" fill="url(#c)"/><path d="M53.202.206 37.898 16.674l4.01 5.656L60.267.206h-7.065Z" fill="url(#d)"/><path d="m57.7 34.558 5.638-6.286a.787.787 0 0 0-.586-1.312H51.476a.787.787 0 0 0-.587 1.312l5.639 6.286c.313.35.858.35 1.172 0Z" fill="url(#e)"/><path d="M72.172 29.896h-2.103l-.435.989h-.583l1.791-3.96h.56l1.797 3.96h-.595l-.432-.99Zm-.199-.45-.852-1.94-.853 1.94h1.705ZM76.509 26.693v4.196h-.522v-.474c-.242.34-.627.51-1.069.51-.876 0-1.516-.617-1.516-1.535 0-.915.64-1.528 1.516-1.528.424 0 .797.157 1.046.48V26.69h.545v.003Zm-.54 2.697c0-.64-.435-1.05-1.006-1.05-.578 0-1.013.41-1.013 1.05 0 .64.435 1.058 1.013 1.058.571 0 1.007-.42 1.007-1.058ZM80.193 27.894 78.88 30.89h-.554l-1.311-2.997h.565l1.03 2.404 1.052-2.404h.53ZM82.977 29.079v1.81h-.515v-.398c-.181.273-.516.43-.983.43-.678 0-1.108-.361-1.108-.883 0-.48.311-.876 1.205-.876h.859v-.107c0-.459-.267-.722-.803-.722-.355 0-.719.124-.95.322l-.225-.408c.31-.249.758-.385 1.238-.385.82 0 1.282.397 1.282 1.217Zm-.542.891v-.417h-.838c-.536 0-.69.21-.69.465 0 .299.249.485.66.485.409 0 .732-.186.868-.533ZM86.831 29.161v1.724h-.542v-1.662c0-.589-.293-.876-.808-.876-.578 0-.95.343-.95.995v1.543h-.543V27.89h.521v.453c.22-.305.605-.48 1.081-.48.726-.003 1.241.415 1.241 1.297ZM87.574 29.39c0-.895.66-1.528 1.584-1.528.536 0 .983.222 1.223.64l-.411.266a.935.935 0 0 0-.814-.43c-.59 0-1.031.412-1.031 1.052 0 .651.441 1.057 1.03 1.057a.935.935 0 0 0 .815-.43l.411.261c-.237.418-.684.646-1.223.646-.92-.003-1.584-.643-1.584-1.534ZM93.735 29.571h-2.431c.068.527.491.877 1.086.877.35 0 .646-.119.865-.361l.3.349c-.273.317-.685.486-1.182.486-.969 0-1.611-.64-1.611-1.534 0-.889.64-1.528 1.504-1.528.865 0 1.48.622 1.48 1.542 0 .05-.005.119-.011.17Zm-2.431-.39h1.921a.934.934 0 0 0-.962-.86.933.933 0 0 0-.96.86ZM98.672 27.892l-1.454 3.296c-.267.634-.61.832-1.07.832-.286 0-.582-.095-.77-.278l.232-.409c.148.142.335.22.536.22.26 0 .423-.12.571-.466l.095-.21-1.323-2.99h.565l1.045 2.398 1.037-2.399h.536v.006ZM98.82 29.39c0-.895.66-1.528 1.561-1.528.9 0 1.554.634 1.554 1.528s-.657 1.534-1.554 1.534c-.9-.003-1.56-.643-1.56-1.534Zm2.568 0c0-.64-.43-1.051-1.007-1.051-.578 0-1.013.411-1.013 1.05 0 .64.435 1.058 1.013 1.058.577 0 1.007-.42 1.007-1.057ZM105.482 27.892v2.997h-.515v-.453c-.219.31-.595.485-1.019.485-.776 0-1.288-.423-1.288-1.306V27.89h.542v1.664c0 .59.293.883.808.883.566 0 .927-.35.927-.995v-1.55h.545ZM108.126 27.862v.527c-.044-.006-.085-.006-.124-.006-.583 0-.944.355-.944 1.013v1.492h-.542v-2.997h.521v.504c.192-.352.565-.533 1.089-.533ZM72.677 36.37c0 .922-.64 1.535-1.516 1.535-.423 0-.796-.163-1.045-.486v1.549h-.542v-4.096h.521v.474c.243-.335.628-.503 1.07-.503.873 0 1.512.61 1.512 1.527Zm-.55 0c0-.633-.436-1.05-1.013-1.05-.572 0-1.007.417-1.007 1.05 0 .64.436 1.058 1.007 1.058.577 0 1.013-.42 1.013-1.057ZM76.269 36.14v1.724h-.542v-1.661c0-.59-.294-.877-.809-.877-.577 0-.95.347-.95.995v1.543h-.542v-4.196h.542v1.623c.225-.287.598-.453 1.057-.453.731.003 1.243.42 1.243 1.303ZM79.649 36.06v1.809h-.516v-.397c-.18.273-.515.43-.983.43-.678 0-1.107-.362-1.107-.883 0-.48.31-.877 1.205-.877h.859v-.106c0-.46-.267-.723-.803-.723-.355 0-.72.125-.95.323l-.225-.409c.31-.248.758-.384 1.238-.384.82 0 1.282.396 1.282 1.217Zm-.542.891v-.418h-.838c-.536 0-.69.21-.69.465 0 .3.249.486.66.486.409 0 .732-.187.868-.533ZM82.271 34.843v.527c-.044-.006-.086-.006-.124-.006-.584 0-.945.355-.945 1.013v1.492h-.542v-2.997h.521v.504c.19-.353.563-.533 1.09-.533ZM87.915 36.142v1.724h-.542v-1.661c0-.59-.281-.877-.776-.877-.541 0-.9.347-.9.995v1.543h-.542v-1.661c0-.59-.284-.877-.775-.877-.542 0-.9.347-.9.995v1.543h-.543v-2.997h.522v.447c.216-.305.583-.474 1.033-.474.46 0 .844.181 1.04.554.225-.34.645-.553 1.154-.553.732 0 1.23.417 1.23 1.3ZM91.293 36.06v1.809h-.515v-.397c-.18.273-.515.43-.983.43-.678 0-1.108-.362-1.108-.883 0-.48.311-.877 1.206-.877h.858v-.106c0-.46-.266-.723-.802-.723-.355 0-.72.125-.95.323l-.226-.409c.311-.248.758-.384 1.238-.384.817 0 1.282.396 1.282 1.217Zm-.542.891v-.418h-.838c-.535 0-.69.21-.69.465 0 .3.25.486.66.486.41 0 .732-.187.868-.533ZM92.04 36.37c0-.894.66-1.527 1.583-1.527.536 0 .983.219 1.223.64l-.411.266a.935.935 0 0 0-.815-.43c-.589 0-1.03.412-1.03 1.051 0 .652.441 1.058 1.03 1.058a.935.935 0 0 0 .815-.43l.411.26c-.237.418-.684.646-1.223.646-.924-.003-1.584-.642-1.584-1.534ZM98.156 34.87l-1.454 3.297c-.266.633-.61.832-1.069.832-.287 0-.583-.095-.77-.279l.231-.408c.148.142.335.219.536.219.26 0 .424-.119.572-.465l.094-.21-1.323-2.991h.565l1.046 2.398 1.036-2.398h.536v.006ZM104.723 34.872l-1.119 2.997h-.521l-.865-2.274-.876 2.274h-.522l-1.113-2.997h.515l.871 2.387.906-2.387h.459l.888 2.399.895-2.399h.482ZM105.172 33.942c0-.198.157-.355.367-.355s.367.154.367.346a.355.355 0 0 1-.367.362.355.355 0 0 1-.367-.353Zm.098.93h.541v2.997h-.541v-2.997ZM108.535 37.693c-.163.142-.411.21-.657.21-.604 0-.951-.334-.951-.938v-1.647h-.509v-.447h.509v-.657h.542v.657h.859v.447h-.859v1.623c0 .323.169.503.471.503.157 0 .311-.05.423-.142l.172.391ZM112.038 36.14v1.724h-.542v-1.661c0-.59-.293-.877-.808-.877-.578 0-.951.347-.951.995v1.543h-.542v-4.196h.542v1.623c.225-.287.598-.453 1.057-.453.729.003 1.244.42 1.244 1.303ZM117.357 34.87v2.997h-.515v-.453c-.219.31-.595.485-1.019.485-.776 0-1.288-.423-1.288-1.306v-1.726h.542v1.661c0 .59.293.883.808.883.566 0 .927-.35.927-.995v-1.55h.545v.004ZM118.016 37.55l.225-.43c.254.181.66.312 1.051.312.503 0 .714-.154.714-.409 0-.672-1.896-.092-1.896-1.285 0-.536.48-.9 1.25-.9.391 0 .832.1 1.093.272l-.231.43a1.575 1.575 0 0 0-.865-.237c-.474 0-.708.174-.708.411 0 .708 1.901.13 1.901 1.294 0 .542-.497.889-1.294.889-.5.003-.992-.148-1.24-.347ZM14.196 22.284l-4.297-6.207H5.158v6.207H0V0h9.644c5.952 0 9.678 3.089 9.678 8.084 0 3.344-1.685 5.793-4.584 7.036l4.998 7.164h-5.54ZM9.36 4.202H5.158v7.768H9.36c3.15 0 4.744-1.463 4.744-3.883C14.1 5.635 12.51 4.202 9.36 4.202ZM33.928 22.285l-3.755-5.253-3.885 5.253h-5.413l6.588-8.626-6.366-8.5h5.57l3.63 5 3.723-5h5.285l-6.366 8.372 6.62 8.754h-5.631ZM82.371 22.284l-4.296-6.207H73.33v6.207h-5.155V0h9.644c5.952 0 9.677 3.089 9.677 8.084 0 3.344-1.688 5.793-4.584 7.036l4.999 7.164h-5.54ZM77.534 4.202h-4.202v7.768h4.202c3.15 0 4.744-1.463 4.744-3.883 0-2.452-1.593-3.885-4.744-3.885ZM89.945 13.718c0-5.158 3.977-8.818 9.423-8.818 5.445 0 9.389 3.66 9.389 8.818 0 5.159-3.947 8.819-9.39 8.819-5.442 0-9.422-3.66-9.422-8.819Zm13.784 0c0-2.96-1.877-4.744-4.361-4.744-2.485 0-4.395 1.783-4.395 4.744 0 2.962 1.91 4.744 4.395 4.744 2.484 0 4.361-1.782 4.361-4.744ZM129.311 5.157v17.125H124.6v-2.037c-1.306 1.496-3.216 2.292-5.315 2.292-4.297 0-7.32-2.42-7.32-7.705V5.157h4.966v8.947c0 2.863 1.273 4.14 3.47 4.14 2.292 0 3.947-1.466 3.947-4.617v-8.47h4.963ZM144.969 21.458c-1.019.731-2.514 1.084-4.042 1.084-4.045 0-6.399-2.07-6.399-6.145V9.361h-2.641V5.538h2.641v-4.17h4.966v4.17h4.267v3.82h-4.267v6.971c0 1.463.796 2.26 2.132 2.26.731 0 1.466-.223 2.008-.637l1.335 3.506ZM163.907 15.122h-12.955c.476 2.132 2.291 3.438 4.9 3.438 1.815 0 3.121-.542 4.3-1.655l2.641 2.863c-1.59 1.816-3.98 2.769-7.068 2.769-5.919 0-9.772-3.725-9.772-8.819 0-5.126 3.915-8.818 9.135-8.818 5.028 0 8.913 3.376 8.913 8.88 0 .389-.062.927-.094 1.342Zm-13.021-2.896h8.437c-.35-2.165-1.972-3.566-4.202-3.566-2.26 0-3.885 1.369-4.235 3.566Z" fill="#fff"/></g><defs><linearGradient id="b" x1="66.104" y1="21.451" x2="42.698" y2="17.324" gradientUnits="userSpaceOnUse"><stop stop-color="#77E2D4"/><stop offset=".177" stop-color="#77E2D4"/><stop offset=".206" stop-color="#77E2D4"/><stop offset=".239" stop-color="#66D4C9"/><stop offset=".305" stop-color="#3AAFAD"/><stop offset=".357" stop-color="#138F95"/><stop offset=".628" stop-color="#77E2D4"/><stop offset=".729" stop-color="#75E2D3"/><stop offset=".765" stop-color="#6EE1D0"/><stop offset=".791" stop-color="#63DFCA"/><stop offset=".812" stop-color="#52DDC1"/><stop offset=".83" stop-color="#3CDAB7"/><stop offset=".846" stop-color="#21D6A9"/><stop offset=".86" stop-color="#02D29A"/><stop offset=".86" stop-color="#00D299"/><stop offset="1" stop-color="#138F95"/></linearGradient><linearGradient id="c" x1="62.359" y1="29.845" x2="52.588" y2="3" gradientUnits="userSpaceOnUse"><stop stop-color="#138F95"/><stop offset=".141" stop-color="#77E2D4"/><stop offset=".453" stop-color="#75E2D3"/><stop offset=".566" stop-color="#6EE1D0"/><stop offset=".646" stop-color="#63DFCA"/><stop offset=".711" stop-color="#52DDC1"/><stop offset=".766" stop-color="#3CDAB7"/><stop offset=".815" stop-color="#21D6A9"/><stop offset=".858" stop-color="#02D29A"/><stop offset=".86" stop-color="#00D299"/><stop offset="1" stop-color="#138F95"/></linearGradient><linearGradient id="d" x1="37.899" y1="11.268" x2="60.267" y2="11.268" gradientUnits="userSpaceOnUse"><stop stop-color="#77E2D4"/><stop offset=".104" stop-color="#7EE4D7"/><stop offset=".259" stop-color="#93EBDE"/><stop offset=".445" stop-color="#B4F6EA"/><stop offset=".5" stop-color="#BFFAEE"/><stop offset="1" stop-color="#77E2D4"/></linearGradient><linearGradient id="e" x1="63.539" y1="30.889" x2="50.687" y2="30.889" gradientUnits="userSpaceOnUse"><stop stop-color="#77E2D4"/><stop offset=".104" stop-color="#7EE4D7"/><stop offset=".259" stop-color="#93EBDE"/><stop offset=".445" stop-color="#B4F6EA"/><stop offset=".5" stop-color="#BFFAEE"/><stop offset="1" stop-color="#77E2D4"/></linearGradient><clipPath id="a"><path fill="#fff" d="M0 0h164v39H0z"/></clipPath></defs></svg>
